X: 41448
T: Two Left Socks
R: reel
M: 4/4
K: Aminor
|:"Am"ABcA aAgA|"E/G#"ABcA fede|"G"ABcA aAgA|"D/F#"fedc dcBc:|
"F"ABcA BEEG|"F"ABcA BAG2|"E/G#"ABcA BEEB|"G"AGAB A2AG|
|:"Em"E2E^F EDG^F|"D"DdDB DA^FG|"G"EGGD ^FGGD|"D/F#"^FABA G^FEG:|"Em"E4||

